!!!OTL: Bohnenlied.
!!!ARE: Europa, Mitteleuropa, Deutschland
!!!SCT: A0361
!!!TXL: @@GMH
!!!YEM: Copyright 1995, estate of Helmut Schaffrath.
**kern	**text
*M4/2	*
*met(c|)	*
*clefC4	*
*k[b-]	*
*F:mix	*
=1	=1
!LO:TX:a:t=mixolyd. tr. (F dur mit Quintſchl.)	!
{1c	Wer
2d	lü-
2d	-tʒel
=2	=2
*lig	*
2G	bhalt
2c	.
*Xlig	*
2A	und
2.B-	vil
=3	=3
.	.
4A/	.
4G	.
4F	.
2G	.
2G	ver-
=4	=4
0F	-tür,
=5	=5
2r}	.
{2c	der
2c	darf
2c	nit
=6	=6
*lig	*
2.d	ſton
4c	.
2B-	.
*Xlig	*
2G	in
=7	=7
*lig	*
2B-	ſor-
2c	.
1d	.
*Xlig	*
=8	=8
0c}	-gen,}
=9	=9
{1c	Das
2d	man
2d	im
=10	=10
*lig	*
2G	ʒletʒt
2c	.
*Xlig	*
2A	ver-
2.B-	-gant
=11	=11
.	.
4A/	.
4G	.
4F	.
2G	.
2G	ſein
=12	=12
0F	gůt,
=13	=13
2r}	.
{2c	kein
2c	Jud
2c	tůt
=14	=14
*lig	*
2.d	im
4c	.
2B-	.
*Xlig	*
2G	drauf
=15	=15
*lig	*
2B-	bor-
2c	.
1d	.
*Xlig	*
=16	=16
0c	-gen.}
=17	=17
2r}	.
{2c	Wer
2d	nü-
2e	-tʒe
=18	=18
2.f	ding
4e	wil
2d	ach-
2c	-ten
=19	=19
1d	ring,
2r}	.
{2f	ſein
=20	=20
2c	ſelbs
2d	nit
*lig	*
2.e	wil
4d	.
=21	=21
2c	.
*Xlig	*
2B-	ver-
1A	-ſcho-
=22	=22
1G	-nen,
2r}	.
{2c	dem
=23	=23
2d	ſagt
2B-	man
1c	bald,
=24	=24
2r	.
2c	e
2d	daß
2B-	er
=25	=25
1c	alt:
2r}	.
{2F	nun
=26	=26
2c	gang
2A	mir
2F	aus
2c	den
=27	=27
1d	bo-
1cll}	-nen!
==	==
!!!GTL: Trink. und Zechlieder, incl. Fastnacht- u. Martinslieder
!!!AGN: Romanze, Ballade, Lied
!! Pet. Schoeffer II. 1537 No. 7.
!!!ONB: ESAC (Essen Associative Code) Database: ALTDEU
!!!AMT: simple quadruple
!!!AIN: vox
!!!EED: Helmut Schaffrath
!!!EEV: 1.0
!!!RDF**kern: l = terminal long
!!!AMD: Mixolydian
!!!URL-scan: https://rosdok.uni-rostock.de/mcrviewer/recordIdentifier/rosdok_ppn738218359/iview2/phys_0507.iview2?x=-495.6391625615763&y=57.45862072473392&scale=0.4629418472063854&rotation=0&layout=singlePageLayout&logicalDiv=log_0013
!!!ENC: Anna Maria Matuszewska
!!!EEV: 2024/13/03
*-	*-
